svg/alert_triangle_positive.svg

<?xml version="1.0" encoding="UTF-8" standalone="no"?>
<!-- Created with Inkscape (http://www.inkscape.org/) -->
<svg id="svg8" xmlns:rdf="http://www.w3.org/1999/02/22-rdf-syntax-ns#" xmlns="http://www.w3.org/2000/svg" xmlns:osb="http://www.openswatchbook.org/uri/2009/osb" height="48" width="48" version="1.1" xmlns:cc="http://creativecommons.org/ns#" viewBox="0 0 12.7 12.7" xmlns:dc="http://purl.org/dc/elements/1.1/">
 <title id="title4753">UIO-icon</title>
 <metadata id="metadata5">
  <rdf:RDF>
   <cc:Work rdf:about="">
    <dc:format>image/svg+xml</dc:format>
    <dc:type rdf:resource="http://purl.org/dc/dcmitype/StillImage"/>
    <dc:title>UIO-icon</dc:title>
    <dc:creator>
     <cc:Agent>
      <dc:title>Joaquín Urbano</dc:title>
     </cc:Agent>
    </dc:creator>
    <dc:rights>
     <cc:Agent>
      <dc:title>GPL</dc:title>
     </cc:Agent>
    </dc:rights>
   </cc:Work>
  </rdf:RDF>
 </metadata>
 <g id="layer1" transform="translate(0,-284.3)" fill="#333">
  <path id="path879" d="m24 4-20 40h40zm-1.5605 12.832h2.9531l-0.213 15.91h-2.543zm1.5527 19.139c0.54812 0 0.96384 0.15799 1.248 0.47266 0.28421 0.30451 0.42773 0.68386 0.42773 1.1406 0 0.45677-0.14352 0.83807-0.42773 1.1426-0.28421 0.29436-0.69993 0.44141-1.248 0.44141-0.54812 0-0.96384-0.14704-1.248-0.44141-0.27406-0.30451-0.41211-0.68581-0.41211-1.1426 0-0.45677 0.13805-0.83611 0.41211-1.1406 0.28421-0.31466 0.69993-0.47266 1.248-0.47266z" transform="matrix(.26458 0 0 .26458 0 284.3)"/>
 </g>
</svg>

<svg width="48" height="48" viewBox="0 0 48 48" fill="none" xmlns="http://www.w3.org/2000/svg">
<path d="M23.9997 4L4 43.9995H43.9995L23.9997 4ZM22.4393 16.8318H25.3923L25.1793 32.7416H22.6364L22.4393 16.8318ZM23.9919 35.9706C24.5401 35.9706 24.9558 36.1286 25.2399 36.4433C25.5241 36.7478 25.6677 37.1271 25.6677 37.5838C25.6677 38.0406 25.5241 38.4219 25.2399 38.7264C24.9557 39.0208 24.54 39.1678 23.9919 39.1678C23.4438 39.1678 23.0281 39.0208 22.744 38.7264C22.4699 38.4219 22.3319 38.0406 22.3319 37.5838C22.3319 37.1271 22.4699 36.7477 22.744 36.4433C23.0282 36.1286 23.4439 35.9706 23.9919 35.9706Z" fill="#333333"/>
</svg>
